build/category/PersonVIPSolid.svg

<svg xmlns="http://www.w3.org/2000/svg" fill="none" viewBox="0 0 24 24" focusable="false"><path d="M0 0H24V24H0z"/><path fill="#74767B" fill-rule="evenodd" d="M7.56456 7.96802C7.26365 5.32002 9.33497 3 12 3C14.6651 3 16.7364 5.32002 16.4355 7.96803L16.1734 10.274C15.9322 12.3966 14.1363 14 12 14C9.86377 14 8.06781 12.3966 7.8266 10.274L7.56456 7.96802ZM10.1464 15C7.33419 15 4.89931 16.9532 4.28926 19.6984L4.18932 20.1481C4.09217 20.5853 4.42482 21 4.87265 21L9.49003 21C9.82261 21 10.1093 20.766 10.1759 20.4401L11.1158 15.8401C11.2045 15.4062 10.8729 15 10.43 15L10.1464 15ZM12.8709 15.8418C12.781 15.4074 13.1128 15 13.5564 15L13.8537 15C16.6658 15 19.1007 16.9532 19.7108 19.6984L19.8107 20.1481C19.9079 20.5853 19.5752 21 19.1274 21L14.5078 21C14.1759 21 13.8896 20.7669 13.8223 20.4418L12.8709 15.8418Z"/></svg>

<svg xmlns="http://www.w3.org/2000/svg" fill="none" viewBox="0 0 24 24" focusable="false"><path fill="#74767B" fill-rule="evenodd" d="M12 3C9.33 3 7.26 5.32 7.56 7.96l.26 2.31A4.21 4.21 0 0 0 12 14c2.13 0 3.93-1.61 4.17-3.73l.26-2.31A4.46 4.46 0 0 0 12 3m-1.86 12c-2.81 0-5.25 1.95-5.86 4.69l-.1.45c-.09.44.24.86.69.86h4.62c.33 0 .61-.24.68-.56l.94-4.6a.694.694 0 0 0-.68-.84zm2.73.84c-.09-.44.24-.84.68-.84h.3c2.81 0 5.25 1.95 5.86 4.69l.1.45c.09.44-.24.86-.69.86H14.5c-.33 0-.62-.24-.68-.56z"/></svg>
